X:210
T:Reel du Gueux
C:Joseph Allard
M:2/4
L:1/16
Z:abc by Bruce Osborne - bosborne@kos.net
K:D
A|d2dc BGEF|GBEF GABc|d2dc BGEF|GBAG FDFA|!
d2dc BGEF|GBEF GABc|d2dc BGEF|GBAG FDD:|!
|:d|Adfd adfd|cdef gefd|Adfd adfd|cdeg fded|!
d2fd adfd|cdef gefg|afge fdec|dBAG FDD:|!
